src/icons/percy.svg

<svg viewBox="0 0 24 24" xmlns="http://www.w3.org/2000/svg">
  <path
    d="M22.847 7.51002C22.801 7.35827 22.7077 7.22523 22.5807 7.1304C22.4536 7.03556 22.2995 6.98391 22.141 6.98302C22.0426 6.98121 21.9448 6.99853 21.853 7.03402C21.5127 7.16341 21.1529 7.23441 20.789 7.24402C19.875 6.57202 17.658 4.95102 16.341 4.04002C16.341 4.04002 16.519 4.57102 16.759 5.56102C16.759 5.56102 14.673 4.36802 13.286 3.45502C13.286 3.45502 13.792 4.50502 13.829 4.84302C13.829 4.84302 12.166 4.53402 9.73697 3.97902C9.73697 3.97902 11.533 4.99602 11.969 5.59902C11.969 5.59902 9.78897 5.41702 7.22197 5.23002C7.22197 5.23002 8.51297 5.89402 9.13997 6.42302C9.13997 6.42302 6.80397 6.71702 5.02797 6.77102C5.02797 6.77102 6.32597 7.79602 6.84797 8.29002C6.84797 8.29002 4.61797 9.10402 1.94397 10.556C1.94397 10.556 3.33797 10.646 4.33797 10.976C4.33797 10.976 3.10597 11.998 0.896973 14.352C0.896973 14.352 2.28897 14.326 3.41397 14.197C3.41397 14.197 2.51197 15.507 1.37597 17.869C1.37597 17.869 2.13397 17.42 2.86297 17.265C2.86297 17.265 2.89297 19.939 4.39597 20.393L4.39797 20.391C4.46425 20.4124 4.53334 20.4239 4.60297 20.425C4.6806 20.4258 4.75797 20.416 4.83297 20.396C5.31397 20.272 5.68497 19.821 6.11497 19.298C6.25697 19.125 6.40297 18.948 6.55797 18.775C6.72897 18.549 6.95197 18.314 7.21797 18.109C7.76697 17.686 8.52297 17.375 9.43597 17.534C10.426 17.654 11.025 18.627 11.508 19.412C11.878 20.012 12.17 20.486 12.588 20.538C12.618 20.542 12.648 20.544 12.676 20.544C13.317 20.555 13.556 19.834 13.857 18.923L13.919 18.737L13.928 18.755C14.152 18.015 14.577 17.22 15.092 16.505C15.79 15.537 16.682 14.677 17.53 14.285L17.533 14.29C17.993 14.042 18.478 13.809 18.955 13.579C20.438 12.864 21.84 12.189 22.555 11.141C22.913 10.617 23.097 9.97002 23.103 9.21702C23.0997 8.63903 23.0135 8.06351 22.847 7.51002ZM16.657 15.392C16.229 15.77 15.809 16.242 15.439 16.756C14.829 17.602 14.375 18.532 14.231 19.308C14.634 19.976 15.001 20.308 15.348 20.319H15.359C15.679 20.325 15.893 20.121 15.996 19.713C16.073 19.408 16.096 18.988 16.123 18.502C16.171 17.616 16.233 16.475 16.657 15.392ZM6.78697 19.212L6.78197 19.199C6.97133 18.912 7.20684 18.6582 7.47897 18.448C7.92097 18.108 8.50097 17.86 9.19497 17.932C9.10794 18.1495 9.01658 18.3652 8.92097 18.579C8.57897 19.342 8.17297 20.129 7.74797 20.186C7.7228 20.1896 7.6974 20.1913 7.67197 20.191C7.34097 20.185 7.05097 19.866 6.78697 19.212ZM15.299 6.77202L13.468 5.59202L16.5 6.69702L15.299 6.77202ZM10.199 7.20902L14.404 7.59602L13.118 7.98502L10.199 7.20902ZM15.402 8.72102L13.606 8.62502L16.036 8.27302L15.402 8.72102ZM11.252 8.65002L10.237 9.28302L7.46197 8.97902L11.252 8.65002ZM14.355 10.328L11.592 10.125L15.382 9.79502L14.355 10.328ZM11.542 10.892L10.812 12.008L7.24897 12.787L11.542 10.892ZM7.09497 11.51L4.32697 12.634L7.74097 10.351L7.09497 11.51ZM5.56797 12.888L5.43797 14.058L3.82697 15.945L5.56797 12.888Z"
    fill="#BA68C8"
  />
</svg>

<svg viewBox="0 0 24 24" xmlns="http://www.w3.org/2000/svg">
  <path
    d="M22.847 7.51a.742.742 0 0 0-.706-.527.76.76 0 0 0-.288.051 3.234 3.234 0 0 1-1.064.21c-.914-.672-3.131-2.293-4.448-3.204 0 0 .178.531.418 1.521 0 0-2.086-1.193-3.473-2.106 0 0 .506 1.05.543 1.388 0 0-1.663-.309-4.092-.864 0 0 1.796 1.017 2.232 1.62 0 0-2.18-.182-4.747-.369 0 0 1.291.664 1.918 1.193 0 0-2.336.294-4.112.348 0 0 1.298 1.025 1.82 1.519 0 0-2.23.814-4.904 2.266 0 0 1.394.09 2.394.42 0 0-1.232 1.022-3.441 3.376 0 0 1.392-.026 2.517-.155 0 0-.902 1.31-2.038 3.672 0 0 .758-.449 1.487-.604 0 0 .03 2.674 1.533 3.128l.002-.002a.706.706 0 0 0 .205.034.86.86 0 0 0 .23-.029c.481-.124.852-.575 1.282-1.098.142-.173.288-.35.443-.523.171-.226.394-.461.66-.666.549-.423 1.305-.734 2.218-.575.99.12 1.589 1.093 2.072 1.878.37.6.662 1.074 1.08 1.126.03.004.06.006.088.006.641.011.88-.71 1.181-1.621l.062-.186.009.018c.224-.74.649-1.535 1.164-2.25.698-.968 1.59-1.828 2.438-2.22l.003.005c.46-.248.945-.481 1.422-.711h.001c1.483-.715 2.884-1.39 3.599-2.438.358-.524.542-1.171.548-1.924a6.04 6.04 0 0 0-.256-1.706zm-6.19 7.882c-.428.378-.848.85-1.218 1.364-.61.846-1.064 1.776-1.208 2.552.403.668.77 1 1.117 1.011h.011c.32.006.534-.198.637-.606.077-.305.1-.725.127-1.211.048-.886.11-2.027.534-3.11zm-9.87 3.82-.005-.013a3.12 3.12 0 0 1 .697-.751c.442-.34 1.022-.588 1.716-.516a17.67 17.67 0 0 1-.274.647c-.342.763-.748 1.55-1.173 1.607a.497.497 0 0 1-.076.005c-.331-.006-.621-.326-.885-.98zm8.512-12.44-1.831-1.18L16.5 6.697zm-5.1.437 2.919.776 1.286-.389zm5.203 1.512.634-.448-2.43.352zm-4.15-.071-1.015.633-2.775-.304zm3.103 1.678 1.027-.533-3.79.33zm-2.813.564-.73 1.116-3.563.779zm-4.447.618-2.768 1.124 3.414-2.283zm-1.527 1.378-.13 1.17-1.611 1.887z"
    style="
      clip-rule: evenodd;
      fill-rule: evenodd;
      fill: #ba68c8;
      stroke-width: 0.43728;
    "
  />
</svg>
